src/plugins/rv-packages/ocio_source_setup/studio-config-all-views-v4.0.0_aces-v2.0_ocio-v2.5.ocio
# ==============================================================================
# OpenColorIO-Config-ACES: Studio Config (All Views) v4.0.0 for ACES 2.0 / OCIO 2.5
# Copyright Contributors to the OpenColorIO Project.
# SPDX-License-Identifier: BSD-3-Clause
#
# Redistribution and use in source and binary forms, with or without
# modification, are permitted provided that the following conditions are met:
#
# * Redistributions of source code must retain the above copyright notice,
#   this list of conditions and the following disclaimer.
# * Redistributions in binary form must reproduce the above copyright notice,
#   this list of conditions and the following disclaimer in the documentation
#   and/or other materials provided with the distribution.
# * Neither the name of the copyright holder nor the names of its contributors
#   may be used to endorse or promote products derived from this software
#   without specific prior written permission.
#
# THIS SOFTWARE IS PROVIDED BY THE COPYRIGHT HOLDERS AND CONTRIBUTORS "AS IS"
# AND ANY EXPRESS OR IMPLIED WARRANTIES, INCLUDING, BUT NOT LIMITED TO, THE
# IMPLIED WARRANTIES OF MERCHANTABILITY AND FITNESS FOR A PARTICULAR PURPOSE ARE
# DISCLAIMED. IN NO EVENT SHALL THE COPYRIGHT HOLDER OR CONTRIBUTORS BE LIABLE
# FOR ANY DIRECT, INDIRECT, INCIDENTAL, SPECIAL, EXEMPLARY, OR CONSEQUENTIAL
# DAMAGES (INCLUDING, BUT NOT LIMITED TO, PROCUREMENT OF SUBSTITUTE GOODS OR
# SERVICES; LOSS OF USE, DATA, OR PROFITS; OR BUSINESS INTERRUPTION) HOWEVER
# CAUSED AND ON ANY THEORY OF LIABILITY, WHETHER IN CONTRACT, STRICT LIABILITY,
# OR TORT (INCLUDING NEGLIGENCE OR OTHERWISE) ARISING IN ANY WAY OUT OF THE USE
# OF THIS SOFTWARE, EVEN IF ADVISED OF THE POSSIBILITY OF SUCH DAMAGE.
# ==============================================================================

ocio_profile_version: 2.5

environment:
  {}
search_path: ""
strictparsing: true
luma: [0.2126, 0.7152, 0.0722]
name: studio-config-all-views-v4.0.0_aces-v2.0_ocio-v2.5
description: |
  Academy Color Encoding System - Studio Config (All Views) [COLORSPACES v4.0.0] [ACES v2.0] [OCIO v2.5]
  ------------------------------------------------------------------------------------------------------

  This "OpenColorIO" config is geared toward studios requiring a config that includes a wide variety of camera colorspaces, displays and looks.

roles:
  aces_interchange: ACES2065-1
  cie_xyz_d65_interchange: CIE XYZ-D65 - Display-referred
  color_picking: sRGB Encoded Rec.709 (sRGB)
  color_timing: ACEScct
  compositing_log: ACEScct
  data: Raw
  matte_paint: ACEScct
  scene_linear: ACEScg
  texture_paint: sRGB Encoded Rec.709 (sRGB)

file_rules:
  - !<Rule> {name: EXR, colorspace: ACES2065-1, pattern: "*", extension: exr}
  - !<Rule> {name: Movies, colorspace: Rec.1886 Rec.709 - Display, regex: ".*\\.([mM][pP]4|[mM][oO][vV]|[mM][xX][fF])$"}
  - !<Rule> {name: Default, colorspace: sRGB - Display}

viewing_rules:
  - !<Rule> {name: Any Scene-linear or Log, encodings: [log, scene-linear]}
  - !<Rule> {name: Any Video, encodings: [sdr-video, hdr-video, edr-video, display-linear]}

shared_views:
  - !<View> {name: ACES 2.0 - SDR 100 nits (Rec.709), view_transform: ACES 2.0 - SDR 100 nits (Rec.709), display_colorspace: <USE_DISPLAY_NAME>, rule: Any Scene-linear or Log}
  - !<View> {name: ACES 2.0 - SDR 100 nits (Rec.709 D60 in Rec.709 D65), view_transform: ACES 2.0 - SDR 100 nits (Rec.709 D60 in Rec.709 D65), display_colorspace: <USE_DISPLAY_NAME>, rule: Any Scene-linear or Log}
  - !<View> {name: ACES 2.0 - SDR 100 nits (P3 D65), view_transform: ACES 2.0 - SDR 100 nits (P3 D65), display_colorspace: <USE_DISPLAY_NAME>, rule: Any Scene-linear or Log}
  - !<View> {name: ACES 2.0 - SDR 100 nits (P3 D60 in P3 D65), view_transform: ACES 2.0 - SDR 100 nits (P3 D60 in P3 D65), display_colorspace: <USE_DISPLAY_NAME>, rule: Any Scene-linear or Log}
  - !<View> {name: ACES 2.0 - HDR 1000 nits (P3 D65), view_transform: ACES 2.0 - HDR 1000 nits (P3 D65), display_colorspace: <USE_DISPLAY_NAME>, rule: Any Scene-linear or Log}
  - !<View> {name: ACES 2.0 - HDR 1000 nits (P3 D60 in P3 D65), view_transform: ACES 2.0 - HDR 1000 nits (P3 D60 in P3 D65), display_colorspace: <USE_DISPLAY_NAME>, rule: Any Scene-linear or Log}
  - !<View> {name: ACES 2.0 - SDR 100 nits (Rec.709 D60 in P3 D65), view_transform: ACES 2.0 - SDR 100 nits (Rec.709 D60 in P3 D65), display_colorspace: <USE_DISPLAY_NAME>, rule: Any Scene-linear or Log}
  - !<View> {name: ACES 2.0 - HDR 1000 nits (P3 D60 in Rec.2020 D65), view_transform: ACES 2.0 - HDR 1000 nits (P3 D60 in Rec.2020 D65), display_colorspace: <USE_DISPLAY_NAME>, rule: Any Scene-linear or Log}
  - !<View> {name: ACES 2.0 - HDR 500 nits (P3 D65), view_transform: ACES 2.0 - HDR 500 nits (P3 D65), display_colorspace: <USE_DISPLAY_NAME>, rule: Any Scene-linear or Log}
  - !<View> {name: ACES 2.0 - HDR 2000 nits (P3 D65), view_transform: ACES 2.0 - HDR 2000 nits (P3 D65), display_colorspace: <USE_DISPLAY_NAME>, rule: Any Scene-linear or Log}
  - !<View> {name: ACES 2.0 - HDR 4000 nits (P3 D65), view_transform: ACES 2.0 - HDR 4000 nits (P3 D65), display_colorspace: <USE_DISPLAY_NAME>, rule: Any Scene-linear or Log}
  - !<View> {name: ACES 2.0 - HDR 500 nits (P3 D60 in Rec.2020 D65), view_transform: ACES 2.0 - HDR 500 nits (P3 D60 in Rec.2020 D65), display_colorspace: <USE_DISPLAY_NAME>, rule: Any Scene-linear or Log}
  - !<View> {name: ACES 2.0 - HDR 2000 nits (P3 D60 in Rec.2020 D65), view_transform: ACES 2.0 - HDR 2000 nits (P3 D60 in Rec.2020 D65), display_colorspace: <USE_DISPLAY_NAME>, rule: Any Scene-linear or Log}
  - !<View> {name: ACES 2.0 - HDR 4000 nits (P3 D60 in Rec.2020 D65), view_transform: ACES 2.0 - HDR 4000 nits (P3 D60 in Rec.2020 D65), display_colorspace: <USE_DISPLAY_NAME>, rule: Any Scene-linear or Log}
  - !<View> {name: ACES 2.0 - HDR 500 nits (Rec.2020), view_transform: ACES 2.0 - HDR 500 nits (Rec.2020), display_colorspace: <USE_DISPLAY_NAME>, rule: Any Scene-linear or Log}
  - !<View> {name: ACES 2.0 - HDR 1000 nits (Rec.2020), view_transform: ACES 2.0 - HDR 1000 nits (Rec.2020), display_colorspace: <USE_DISPLAY_NAME>, rule: Any Scene-linear or Log}
  - !<View> {name: ACES 2.0 - HDR 2000 nits (Rec.2020), view_transform: ACES 2.0 - HDR 2000 nits (Rec.2020), display_colorspace: <USE_DISPLAY_NAME>, rule: Any Scene-linear or Log}
  - !<View> {name: ACES 2.0 - HDR 4000 nits (Rec.2020), view_transform: ACES 2.0 - HDR 4000 nits (Rec.2020), display_colorspace: <USE_DISPLAY_NAME>, rule: Any Scene-linear or Log}
  - !<View> {name: ACES 2.0 - HDR 500 nits (Rec.2020 D60 in Rec.2020 D65), view_transform: ACES 2.0 - HDR 500 nits (Rec.2020 D60 in Rec.2020 D65), display_colorspace: <USE_DISPLAY_NAME>, rule: Any Scene-linear or Log}
  - !<View> {name: ACES 2.0 - HDR 1000 nits (Rec.2020 D60 in Rec.2020 D65), view_transform: ACES 2.0 - HDR 1000 nits (Rec.2020 D60 in Rec.2020 D65), display_colorspace: <USE_DISPLAY_NAME>, rule: Any Scene-linear or Log}
  - !<View> {name: ACES 2.0 - HDR 2000 nits (Rec.2020 D60 in Rec.2020 D65), view_transform: ACES 2.0 - HDR 2000 nits (Rec.2020 D60 in Rec.2020 D65), display_colorspace: <USE_DISPLAY_NAME>, rule: Any Scene-linear or Log}
  - !<View> {name: ACES 2.0 - HDR 4000 nits (Rec.2020 D60 in Rec.2020 D65), view_transform: ACES 2.0 - HDR 4000 nits (Rec.2020 D60 in Rec.2020 D65), display_colorspace: <USE_DISPLAY_NAME>, rule: Any Scene-linear or Log}
  - !<View> {name: ACES 2.0 - SDR 100 nits (Rec.709 D60 in Rec.2020 D65), view_transform: ACES 2.0 - SDR 100 nits (Rec.709 D60 in Rec.2020 D65), display_colorspace: <USE_DISPLAY_NAME>, rule: Any Scene-linear or Log}
  - !<View> {name: ACES 2.0 - HDR 108 nits (P3 D65), view_transform: ACES 2.0 - HDR 108 nits (P3 D65), display_colorspace: <USE_DISPLAY_NAME>, rule: Any Scene-linear or Log}
  - !<View> {name: ACES 2.0 - HDR 108 nits (P3 D60 in P3 D65), view_transform: ACES 2.0 - HDR 108 nits (P3 D60 in P3 D65), display_colorspace: <USE_DISPLAY_NAME>, rule: Any Scene-linear or Log}
  - !<View> {name: ACES 2.0 - HDR 500 nits (P3 D60 in P3 D65), view_transform: ACES 2.0 - HDR 500 nits (P3 D60 in P3 D65), display_colorspace: <USE_DISPLAY_NAME>, rule: Any Scene-linear or Log}
  - !<View> {name: ACES 2.0 - HDR 2000 nits (P3 D60 in P3 D65), view_transform: ACES 2.0 - HDR 2000 nits (P3 D60 in P3 D65), display_colorspace: <USE_DISPLAY_NAME>, rule: Any Scene-linear or Log}
  - !<View> {name: ACES 2.0 - HDR 4000 nits (P3 D60 in P3 D65), view_transform: ACES 2.0 - HDR 4000 nits (P3 D60 in P3 D65), display_colorspace: <USE_DISPLAY_NAME>, rule: Any Scene-linear or Log}
  - !<View> {name: Un-tone-mapped, view_transform: Un-tone-mapped, display_colorspace: <USE_DISPLAY_NAME>, rule: Any Scene-linear or Log}
  - !<View> {name: Video (colorimetric), view_transform: Video (colorimetric), display_colorspace: <USE_DISPLAY_NAME>, rule: Any Video}

displays:
  sRGB - Display:
    - !<View> {name: Raw, colorspace: Raw}
    - !<Views> [ACES 2.0 - SDR 100 nits (Rec.709), ACES 2.0 - SDR 100 nits (Rec.709 D60 in Rec.709 D65), Un-tone-mapped, Video (colorimetric)]
  Gamma 2.2 Rec.709 - Display:
    - !<View> {name: Raw, colorspace: Raw}
    - !<Views> [ACES 2.0 - SDR 100 nits (Rec.709), ACES 2.0 - SDR 100 nits (Rec.709 D60 in Rec.709 D65), Un-tone-mapped, Video (colorimetric)]
  Display P3 - Display:
    - !<View> {name: Raw, colorspace: Raw}
    - !<Views> [ACES 2.0 - SDR 100 nits (P3 D65), ACES 2.0 - SDR 100 nits (P3 D60 in P3 D65), Un-tone-mapped, Video (colorimetric)]
  Display P3 HDR - Display:
    - !<View> {name: Raw, colorspace: Raw}
    - !<Views> [ACES 2.0 - HDR 1000 nits (P3 D65), ACES 2.0 - HDR 1000 nits (P3 D60 in P3 D65), ACES 2.0 - SDR 100 nits (Rec.709), ACES 2.0 - SDR 100 nits (Rec.709 D60 in P3 D65), Un-tone-mapped, Video (colorimetric)]
  P3-D65 - Display:
    - !<View> {name: Raw, colorspace: Raw}
    - !<Views> [ACES 2.0 - SDR 100 nits (P3 D65), ACES 2.0 - SDR 100 nits (P3 D60 in P3 D65), ACES 2.0 - SDR 100 nits (Rec.709), ACES 2.0 - SDR 100 nits (Rec.709 D60 in P3 D65), Un-tone-mapped, Video (colorimetric)]
  Rec.1886 Rec.709 - Display:
    - !<View> {name: Raw, colorspace: Raw}
    - !<Views> [ACES 2.0 - SDR 100 nits (Rec.709), ACES 2.0 - SDR 100 nits (Rec.709 D60 in Rec.709 D65), Un-tone-mapped, Video (colorimetric)]
  Rec.2100-HLG - Display:
    - !<View> {name: Raw, colorspace: Raw}
    - !<Views> [ACES 2.0 - HDR 1000 nits (P3 D65), ACES 2.0 - HDR 1000 nits (P3 D60 in Rec.2020 D65), Un-tone-mapped, Video (colorimetric)]
  Rec.2100-PQ - Display:
    - !<View> {name: Raw, colorspace: Raw}
    - !<Views> [ACES 2.0 - HDR 500 nits (P3 D65), ACES 2.0 - HDR 1000 nits (P3 D65), ACES 2.0 - HDR 2000 nits (P3 D65), ACES 2.0 - HDR 4000 nits (P3 D65), ACES 2.0 - HDR 500 nits (P3 D60 in Rec.2020 D65), ACES 2.0 - HDR 1000 nits (P3 D60 in Rec.2020 D65), ACES 2.0 - HDR 2000 nits (P3 D60 in Rec.2020 D65), ACES 2.0 - HDR 4000 nits (P3 D60 in Rec.2020 D65), ACES 2.0 - HDR 500 nits (Rec.2020), ACES 2.0 - HDR 1000 nits (Rec.2020), ACES 2.0 - HDR 2000 nits (Rec.2020), ACES 2.0 - HDR 4000 nits (Rec.2020), ACES 2.0 - HDR 500 nits (Rec.2020 D60 in Rec.2020 D65), ACES 2.0 - HDR 1000 nits (Rec.2020 D60 in Rec.2020 D65), ACES 2.0 - HDR 2000 nits (Rec.2020 D60 in Rec.2020 D65), ACES 2.0 - HDR 4000 nits (Rec.2020 D60 in Rec.2020 D65), ACES 2.0 - SDR 100 nits (Rec.709 D60 in Rec.2020 D65), ACES 2.0 - SDR 100 nits (Rec.709), Un-tone-mapped, Video (colorimetric)]
  ST2084-P3-D65 - Display:
    - !<View> {name: Raw, colorspace: Raw}
    - !<Views> [ACES 2.0 - HDR 108 nits (P3 D65), ACES 2.0 - HDR 500 nits (P3 D65), ACES 2.0 - HDR 1000 nits (P3 D65), ACES 2.0 - HDR 2000 nits (P3 D65), ACES 2.0 - HDR 4000 nits (P3 D65), ACES 2.0 - HDR 108 nits (P3 D60 in P3 D65), ACES 2.0 - HDR 500 nits (P3 D60 in P3 D65), ACES 2.0 - HDR 1000 nits (P3 D60 in P3 D65), ACES 2.0 - HDR 2000 nits (P3 D60 in P3 D65), ACES 2.0 - HDR 4000 nits (P3 D60 in P3 D65), ACES 2.0 - SDR 100 nits (Rec.709), ACES 2.0 - SDR 100 nits (Rec.709 D60 in Rec.2020 D65), Un-tone-mapped, Video (colorimetric)]

virtual_display:
  - !<View> {name: Raw, colorspace: Raw}
  - !<Views> [Un-tone-mapped, ACES 2.0 - SDR 100 nits (Rec.709 D60 in P3 D65), Video (colorimetric), ACES 2.0 - SDR 100 nits (P3 D65), ACES 2.0 - SDR 100 nits (Rec.709), ACES 2.0 - SDR 100 nits (P3 D60 in P3 D65), ACES 2.0 - SDR 100 nits (Rec.709 D60 in Rec.709 D65)]

active_displays: [sRGB - Display, Display P3 - Display, Display P3 HDR - Display, Gamma 2.2 Rec.709 - Display, P3-D65 - Display, Rec.1886 Rec.709 - Display, Rec.2100-HLG - Display, Rec.2100-PQ - Display, ST2084-P3-D65 - Display]
active_views: [ACES 2.0 - HDR 1000 nits (P3 D65), ACES 2.0 - HDR 1000 nits (Rec.2020), ACES 2.0 - HDR 1000 nits (P3 D60 in P3 D65), ACES 2.0 - HDR 1000 nits (P3 D60 in Rec.2020 D65), ACES 2.0 - HDR 1000 nits (Rec.2020 D60 in Rec.2020 D65), ACES 2.0 - HDR 2000 nits (P3 D65), ACES 2.0 - HDR 2000 nits (Rec.2020), ACES 2.0 - HDR 2000 nits (P3 D60 in P3 D65), ACES 2.0 - HDR 2000 nits (P3 D60 in Rec.2020 D65), ACES 2.0 - HDR 2000 nits (Rec.2020 D60 in Rec.2020 D65), ACES 2.0 - HDR 4000 nits (P3 D65), ACES 2.0 - HDR 4000 nits (Rec.2020), ACES 2.0 - HDR 4000 nits (P3 D60 in P3 D65), ACES 2.0 - HDR 4000 nits (P3 D60 in Rec.2020 D65), ACES 2.0 - HDR 4000 nits (Rec.2020 D60 in Rec.2020 D65), ACES 2.0 - HDR 500 nits (P3 D65), ACES 2.0 - HDR 500 nits (Rec.2020), ACES 2.0 - HDR 500 nits (P3 D60 in P3 D65), ACES 2.0 - HDR 500 nits (P3 D60 in Rec.2020 D65), ACES 2.0 - HDR 500 nits (Rec.2020 D60 in Rec.2020 D65), ACES 2.0 - HDR 108 nits (P3 D65), ACES 2.0 - HDR 108 nits (P3 D60 in P3 D65), ACES 2.0 - SDR 100 nits (P3 D65), ACES 2.0 - SDR 100 nits (P3 D60 in P3 D65), ACES 2.0 - SDR 100 nits (Rec.709), ACES 2.0 - SDR 100 nits (Rec.709 D60 in P3 D65), ACES 2.0 - SDR 100 nits (Rec.709 D60 in Rec.2020 D65), ACES 2.0 - SDR 100 nits (Rec.709 D60 in Rec.709 D65), Un-tone-mapped, Video (colorimetric), Raw]
inactive_colorspaces: [CIE XYZ-D65 - Display-referred, CIE XYZ-D65 - Scene-referred]

looks:
  - !<Look>
    name: ACES 1.3 Reference Gamut Compression
    process_space: ACES2065-1
    description: LMT (applied in ACES2065-1) to compress scene-referred values from common cameras into the AP1 gamut
    interchange:
      amf_transform_ids: |
        urn:ampas:aces:transformId:v2.0:InvLook.Academy.ReferenceGamutCompress.a2.v1
        urn:ampas:aces:transformId:v2.0:Look.Academy.ReferenceGamutCompress.a2.v1
    transform: !<BuiltinTransform> {style: ACES-LMT - ACES 1.3 Reference Gamut Compression}


default_view_transform: Un-tone-mapped

view_transforms:
  - !<ViewTransform>
    name: Un-tone-mapped
    from_scene_reference: !<BuiltinTransform> {style: UTILITY - ACES-AP0_to_CIE-XYZ-D65_BFD}

  - !<ViewTransform>
    name: Video (colorimetric)
    from_display_reference: !<MatrixTransform> {}

  - !<ViewTransform>
    name: ACES 2.0 - SDR 100 nits (Rec.709)
    description: Component of ACES 2 Output Transforms for 100 nit SDR Rec709
    interchange:
      amf_transform_ids: |
        urn:ampas:aces:transformId:v2.0:InvOutput.Academy.Rec709-D65_100nit_in_P3-D65_ST2084.a2.v1
        urn:ampas:aces:transformId:v2.0:InvOutput.Academy.Rec709-D65_100nit_in_P3-D65_sRGB-Piecewise.a2.v1
        urn:ampas:aces:transformId:v2.0:InvOutput.Academy.Rec709-D65_100nit_in_Rec2100-D65_ST2084.a2.v1
        urn:ampas:aces:transformId:v2.0:InvOutput.Academy.Rec709-D65_100nit_in_Rec709-D65_BT1886.a2.v1
        urn:ampas:aces:transformId:v2.0:InvOutput.Academy.Rec709-D65_100nit_in_Rec709-D65_Gamma2pt2.a2.v1
        urn:ampas:aces:transformId:v2.0:InvOutput.Academy.Rec709-D65_100nit_in_Rec709-D65_sRGB-Piecewise.a2.v1
        urn:ampas:aces:transformId:v2.0:InvOutput.Academy.Rec709-D65_48nit_in_P3-D65_Gamma2pt6.a2.v1
        urn:ampas:aces:transformId:v2.0:Output.Academy.Rec709-D65_100nit_in_P3-D65_ST2084.a2.v1
        urn:ampas:aces:transformId:v2.0:Output.Academy.Rec709-D65_100nit_in_P3-D65_sRGB-Piecewise.a2.v1
        urn:ampas:aces:transformId:v2.0:Output.Academy.Rec709-D65_100nit_in_Rec2100-D65_ST2084.a2.v1
        urn:ampas:aces:transformId:v2.0:Output.Academy.Rec709-D65_100nit_in_Rec709-D65_BT1886.a2.v1
        urn:ampas:aces:transformId:v2.0:Output.Academy.Rec709-D65_100nit_in_Rec709-D65_Gamma2pt2.a2.v1
        urn:ampas:aces:transformId:v2.0:Output.Academy.Rec709-D65_100nit_in_Rec709-D65_sRGB-Piecewise.a2.v1
        urn:ampas:aces:transformId:v2.0:Output.Academy.Rec709-D65_48nit_in_P3-D65_Gamma2pt6.a2.v1
    from_scene_reference: !<BuiltinTransform> {style: ACES-OUTPUT - ACES2065-1_to_CIE-XYZ-D65 - SDR-100nit-REC709_2.0}

  - !<ViewTransform>
    name: ACES 2.0 - SDR 100 nits (Rec.709 D60 in Rec.709 D65)
    description: Component of ACES 2 Output Transforms for 100 nit SDR Rec709 simulating D60 white in Rec709
    interchange:
      amf_transform_ids: |
        urn:ampas:aces:transformId:v2.0:InvOutput.Academy.Rec709-D60_100nit_in_Rec709-D65_BT1886.a2.v1
        urn:ampas:aces:transformId:v2.0:InvOutput.Academy.Rec709-D60_100nit_in_Rec709-D65_Gamma2pt2.a2.v1
        urn:ampas:aces:transformId:v2.0:InvOutput.Academy.Rec709-D60_100nit_in_Rec709-D65_sRGB-Piecewise.a2.v1
        urn:ampas:aces:transformId:v2.0:Output.Academy.Rec709-D60_100nit_in_Rec709-D65_BT1886.a2.v1
        urn:ampas:aces:transformId:v2.0:Output.Academy.Rec709-D60_100nit_in_Rec709-D65_Gamma2pt2.a2.v1
        urn:ampas:aces:transformId:v2.0:Output.Academy.Rec709-D60_100nit_in_Rec709-D65_sRGB-Piecewise.a2.v1
    from_scene_reference: !<BuiltinTransform> {style: ACES-OUTPUT - ACES2065-1_to_CIE-XYZ-D65 - SDR-100nit-REC709-D60-in-REC709-D65_2.0}

  - !<ViewTransform>
    name: ACES 2.0 - SDR 100 nits (P3 D65)
    description: Component of ACES 2 Output Transforms for 100 nit SDR P3-D65
    interchange:
      amf_transform_ids: |
        urn:ampas:aces:transformId:v2.0:InvOutput.Academy.P3-D65_100nit_in_P3-D65_sRGB-Piecewise.a2.v1
        urn:ampas:aces:transformId:v2.0:InvOutput.Academy.P3-D65_48nit_in_P3-D65_Gamma2pt6.a2.v1
        urn:ampas:aces:transformId:v2.0:InvOutput.Academy.P3-D65_48nit_in_XYZ-E_Gamma2pt6.a2.v1
        urn:ampas:aces:transformId:v2.0:Output.Academy.P3-D65_100nit_in_P3-D65_sRGB-Piecewise.a2.v1
        urn:ampas:aces:transformId:v2.0:Output.Academy.P3-D65_48nit_in_P3-D65_Gamma2pt6.a2.v1
        urn:ampas:aces:transformId:v2.0:Output.Academy.P3-D65_48nit_in_XYZ-E_Gamma2pt6.a2.v1
    from_scene_reference: !<BuiltinTransform> {style: ACES-OUTPUT - ACES2065-1_to_CIE-XYZ-D65 - SDR-100nit-P3-D65_2.0}

  - !<ViewTransform>
    name: ACES 2.0 - SDR 100 nits (P3 D60 in P3 D65)
    description: Component of ACES 2 Output Transforms for 100 nit SDR P3-D60 simulating D60 white in P3-D65
    interchange:
      amf_transform_ids: |
        urn:ampas:aces:transformId:v2.0:InvOutput.Academy.P3-D60_100nit_in_P3-D65_sRGB-Piecewise.a2.v1
        urn:ampas:aces:transformId:v2.0:InvOutput.Academy.P3-D60_48nit_in_P3-D65_Gamma2pt6.a2.v1
        urn:ampas:aces:transformId:v2.0:Output.Academy.P3-D60_100nit_in_P3-D65_sRGB-Piecewise.a2.v1
        urn:ampas:aces:transformId:v2.0:Output.Academy.P3-D60_48nit_in_P3-D65_Gamma2pt6.a2.v1
    from_scene_reference: !<BuiltinTransform> {style: ACES-OUTPUT - ACES2065-1_to_CIE-XYZ-D65 - SDR-100nit-P3-D60-in-P3-D65_2.0}

  - !<ViewTransform>
    name: ACES 2.0 - HDR 1000 nits (P3 D65)
    description: Component of ACES 2 Output Transforms for 1000 nit HDR P3-D65
    interchange:
      amf_transform_ids: |
        urn:ampas:aces:transformId:v2.0:InvOutput.Academy.P3-D65_1000nit_in_P3-D65_ST2084.a2.v1
        urn:ampas:aces:transformId:v2.0:InvOutput.Academy.P3-D65_1000nit_in_P3-D65_sRGB-Piecewise.a2.v1
        urn:ampas:aces:transformId:v2.0:InvOutput.Academy.P3-D65_1000nit_in_Rec2100-D65_HLG.a2.v1
        urn:ampas:aces:transformId:v2.0:InvOutput.Academy.P3-D65_1000nit_in_Rec2100-D65_ST2084.a2.v1
        urn:ampas:aces:transformId:v2.0:Output.Academy.P3-D65_1000nit_in_P3-D65_ST2084.a2.v1
        urn:ampas:aces:transformId:v2.0:Output.Academy.P3-D65_1000nit_in_P3-D65_sRGB-Piecewise.a2.v1
        urn:ampas:aces:transformId:v2.0:Output.Academy.P3-D65_1000nit_in_Rec2100-D65_HLG.a2.v1
        urn:ampas:aces:transformId:v2.0:Output.Academy.P3-D65_1000nit_in_Rec2100-D65_ST2084.a2.v1
    from_scene_reference: !<BuiltinTransform> {style: ACES-OUTPUT - ACES2065-1_to_CIE-XYZ-D65 - HDR-1000nit-P3-D65_2.0}

  - !<ViewTransform>
    name: ACES 2.0 - HDR 1000 nits (P3 D60 in P3 D65)
    description: Component of ACES 2 Output Transforms for 1000 nit HDR P3-D60 simulating D60 white in P3-D65
    interchange:
      amf_transform_ids: |
        urn:ampas:aces:transformId:v2.0:InvOutput.Academy.P3-D60_1000nit_in_P3-D65_ST2084.a2.v1
        urn:ampas:aces:transformId:v2.0:InvOutput.Academy.P3-D60_1000nit_in_P3-D65_sRGB-Piecewise.a2.v1
        urn:ampas:aces:transformId:v2.0:Output.Academy.P3-D60_1000nit_in_P3-D65_ST2084.a2.v1
        urn:ampas:aces:transformId:v2.0:Output.Academy.P3-D60_1000nit_in_P3-D65_sRGB-Piecewise.a2.v1
    from_scene_reference: !<BuiltinTransform> {style: ACES-OUTPUT - ACES2065-1_to_CIE-XYZ-D65 - HDR-1000nit-P3-D60-in-P3-D65_2.0}

  - !<ViewTransform>
    name: ACES 2.0 - SDR 100 nits (Rec.709 D60 in P3 D65)
    description: Component of ACES 2 Output Transforms for 100 nit SDR Rec709 simulating D60 white in P3-D65
    interchange:
      amf_transform_ids: |
        urn:ampas:aces:transformId:v2.0:InvOutput.Academy.Rec709-D60_100nit_in_P3-D65_sRGB-Piecewise.a2.v1
        urn:ampas:aces:transformId:v2.0:InvOutput.Academy.Rec709-D60_48nit_in_P3-D65_Gamma2pt6.a2.v1
        urn:ampas:aces:transformId:v2.0:Output.Academy.Rec709-D60_100nit_in_P3-D65_sRGB-Piecewise.a2.v1
        urn:ampas:aces:transformId:v2.0:Output.Academy.Rec709-D60_48nit_in_P3-D65_Gamma2pt6.a2.v1
    from_scene_reference: !<BuiltinTransform> {style: ACES-OUTPUT - ACES2065-1_to_CIE-XYZ-D65 - SDR-100nit-REC709-D60-in-P3-D65_2.0}

  - !<ViewTransform>
    name: ACES 2.0 - HDR 1000 nits (P3 D60 in Rec.2020 D65)
    description: Component of ACES 2 Output Transforms for 1000 nit HDR P3-D60 simulating D60 white in Rec2020
    interchange:
      amf_transform_ids: |
        urn:ampas:aces:transformId:v2.0:InvOutput.Academy.P3-D60_1000nit_in_Rec2100-D65_HLG.a2.v1
        urn:ampas:aces:transformId:v2.0:InvOutput.Academy.P3-D60_1000nit_in_Rec2100-D65_ST2084.a2.v1
        urn:ampas:aces:transformId:v2.0:Output.Academy.P3-D60_1000nit_in_Rec2100-D65_HLG.a2.v1
        urn:ampas:aces:transformId:v2.0:Output.Academy.P3-D60_1000nit_in_Rec2100-D65_ST2084.a2.v1
    from_scene_reference: !<BuiltinTransform> {style: ACES-OUTPUT - ACES2065-1_to_CIE-XYZ-D65 - HDR-1000nit-P3-D60-in-REC2020-D65_2.0}

  - !<ViewTransform>
    name: ACES 2.0 - HDR 500 nits (P3 D65)
    description: Component of ACES 2 Output Transforms for 500 nit HDR P3-D65
    interchange:
      amf_transform_ids: |
        urn:ampas:aces:transformId:v2.0:InvOutput.Academy.P3-D65_500nit_in_P3-D65_ST2084.a2.v1
        urn:ampas:aces:transformId:v2.0:InvOutput.Academy.P3-D65_500nit_in_Rec2100-D65_ST2084.a2.v1
        urn:ampas:aces:transformId:v2.0:Output.Academy.P3-D65_500nit_in_P3-D65_ST2084.a2.v1
        urn:ampas:aces:transformId:v2.0:Output.Academy.P3-D65_500nit_in_Rec2100-D65_ST2084.a2.v1
    from_scene_reference: !<BuiltinTransform> {style: ACES-OUTPUT - ACES2065-1_to_CIE-XYZ-D65 - HDR-500nit-P3-D65_2.0}

  - !<ViewTransform>
    name: ACES 2.0 - HDR 2000 nits (P3 D65)
    description: Component of ACES 2 Output Transforms for 2000 nit HDR P3-D65
    interchange:
      amf_transform_ids: |
        urn:ampas:aces:transformId:v2.0:InvOutput.Academy.P3-D65_2000nit_in_P3-D65_ST2084.a2.v1
        urn:ampas:aces:transformId:v2.0:InvOutput.Academy.P3-D65_2000nit_in_Rec2100-D65_ST2084.a2.v1
        urn:ampas:aces:transformId:v2.0:Output.Academy.P3-D65_2000nit_in_P3-D65_ST2084.a2.v1
        urn:ampas:aces:transformId:v2.0:Output.Academy.P3-D65_2000nit_in_Rec2100-D65_ST2084.a2.v1
    from_scene_reference: !<BuiltinTransform> {style: ACES-OUTPUT - ACES2065-1_to_CIE-XYZ-D65 - HDR-2000nit-P3-D65_2.0}

  - !<ViewTransform>
